docs/.gitbook/assets/icon-waveform-16@light.svg

<svg width="32" height="32" viewBox="0 0 16 16" fill="none" xmlns="http://www.w3.org/2000/svg">
<rect x="0" y="0" width="16" height="16" fill="#fff"/>
<path fill-rule="evenodd" clip-rule="evenodd" d="M8 1C8.41421 1 8.75 1.33579 8.75 1.75V14.25C8.75 14.6642 8.41421 15 8 15C7.58579 15 7.25 14.6642 7.25 14.25V1.75C7.25 1.33579 7.58579 1 8 1ZM14 3C14.4142 3 14.75 3.33579 14.75 3.75V12.25C14.75 12.6642 14.4142 13 14 13C13.5858 13 13.25 12.6642 13.25 12.25V3.75C13.25 3.33579 13.5858 3 14 3ZM5 4C5.41421 4 5.75 4.33579 5.75 4.75V11.25C5.75 11.6642 5.41421 12 5 12C4.58579 12 4.25 11.6642 4.25 11.25V4.75C4.25 4.33579 4.58579 4 5 4ZM11 5C11.4142 5 11.75 5.33579 11.75 5.75V10.25C11.75 10.6642 11.4142 11 11 11C10.5858 11 10.25 10.6642 10.25 10.25V5.75C10.25 5.33579 10.5858 5 11 5ZM2 6C2.41421 6 2.75 6.33579 2.75 6.75V9.25C2.75 9.66421 2.41421 10 2 10C1.58579 10 1.25 9.66421 1.25 9.25V6.75C1.25 6.33579 1.58579 6 2 6Z" fill="#000"/>
</svg>

<svg xmlns="http://www.w3.org/2000/svg" width="32" height="32" fill="none" viewBox="0 0 16 16"><path fill="#fff" d="M0 0h16v16H0z"/><path fill="#000" fill-rule="evenodd" d="M8 1a.75.75 0 0 1 .75.75v12.5a.75.75 0 0 1-1.5 0V1.75A.75.75 0 0 1 8 1m6 2a.75.75 0 0 1 .75.75v8.5a.75.75 0 0 1-1.5 0v-8.5A.75.75 0 0 1 14 3M5 4a.75.75 0 0 1 .75.75v6.5a.75.75 0 0 1-1.5 0v-6.5A.75.75 0 0 1 5 4m6 1a.75.75 0 0 1 .75.75v4.5a.75.75 0 0 1-1.5 0v-4.5A.75.75 0 0 1 11 5M2 6a.75.75 0 0 1 .75.75v2.5a.75.75 0 0 1-1.5 0v-2.5A.75.75 0 0 1 2 6" clip-rule="evenodd"/></svg>
